X:71
T:Cajun Billy
C: Traditional
N:Arranged by Mike Stangeland
R:bluegrass
L:1/8
Q:1/4=211
M:4/4
K:A
|: "A"AE FA zA zE | FA FE FE CA, | "E"B,3B, zC B,A, | B,C EG FE CE | 
|"A"AE FA zA zE | FA FE FE CB, | A,3A, zC B,A, |1 A,3A, zE FE :|2 A,3A, zc BA |]
|: "E"EG Be ze zB | cB cA BA GF | EG Be ze zB | cB GB "A"A2 A2 :|
| "A"A3A zc BA | A3A z4 | EF Ac BA GA | "E"B3B zB cA |
| "D"d3d zc B2 | "E"B3B zc BA | "A"A3A zc BA | A3A zc BA |
| A2 c2 zB z2 | A3A z4 | EF Ac BA GA | B3B zB cA |
| "D"d3d zc BA | "E"B3B zc BA | "A"A3A zc BA | A3A4z ||

